findly-builder/apps/searchassist/src/assets/icons/emoji-black.svg

<svg width="17" height="17" viewBox="0 0 17 17" fill="none" xmlns="http://www.w3.org/2000/svg">
<path d="M5.25 5.27747C4.91848 5.27747 4.60054 5.40916 4.36612 5.64358C4.1317 5.878 4 6.19595 4 6.52747C4 6.85899 4.1317 7.17693 4.36612 7.41135C4.60054 7.64577 4.91848 7.77747 5.25 7.77747C5.58152 7.77747 5.89946 7.64577 6.13388 7.41135C6.3683 7.17693 6.5 6.85899 6.5 6.52747C6.5 6.19595 6.3683 5.878 6.13388 5.64358C5.89946 5.40916 5.58152 5.27747 5.25 5.27747Z" fill="#202124"/>
<path d="M11.5 5.27747C11.1685 5.27747 10.8505 5.40916 10.6161 5.64358C10.3817 5.878 10.25 6.19595 10.25 6.52747C10.25 6.85899 10.3817 7.17693 10.6161 7.41135C10.8505 7.64577 11.1685 7.77747 11.5 7.77747C11.8315 7.77747 12.1495 7.64577 12.3839 7.41135C12.6183 7.17693 12.75 6.85899 12.75 6.52747C12.75 6.19595 12.6183 5.878 12.3839 5.64358C12.1495 5.40916 11.8315 5.27747 11.5 5.27747Z" fill="#202124"/>
<path d="M8.37513 12.7775C9.76462 12.7775 10.6945 12.2758 11.2782 11.7397C11.5648 11.4764 11.7608 11.2118 11.8868 11.009C11.95 10.9074 11.9962 10.8203 12.0279 10.7554C12.0438 10.7229 12.0561 10.6958 12.0651 10.675L12.0763 10.6486L12.0801 10.6392L12.0816 10.6354L12.0822 10.6338C12.0824 10.6334 12.0828 10.6323 11.5001 10.4062C10.9174 10.1802 10.9176 10.1798 10.9177 10.1795L10.9184 10.1777C10.9163 10.1825 10.912 10.1919 10.9046 10.2071C10.8897 10.2377 10.8638 10.2871 10.8252 10.3491C10.7478 10.4737 10.6214 10.6457 10.4327 10.819C10.0657 11.156 9.43314 11.5275 8.37513 11.5275C7.27268 11.5275 6.64381 11.1527 6.29285 10.8235C6.11144 10.6533 5.99361 10.485 5.92287 10.3639C5.8876 10.3035 5.86454 10.2557 5.85155 10.2266C5.84507 10.2121 5.84116 10.2023 5.83954 10.1982L5.84042 10.2008L5.84086 10.2021C5.84098 10.2025 5.84134 10.2035 5.25013 10.4062C4.65892 10.6089 4.65905 10.6093 4.65918 10.6097L4.66007 10.6123L4.66147 10.6162L4.66504 10.6262L4.67541 10.6535C4.68379 10.6749 4.69521 10.7027 4.71004 10.7359C4.73966 10.8023 4.78311 10.8909 4.84345 10.9943C4.96392 11.2005 5.15367 11.4688 5.43773 11.7352C6.0177 12.2792 6.95134 12.7775 8.37513 12.7775Z" fill="#202124"/>
<path fill-rule="evenodd" clip-rule="evenodd" d="M2.62976 2.62976C4.15349 1.10602 6.22012 0.25 8.375 0.25C10.5299 0.25 12.5965 1.10602 14.1202 2.62976C15.644 4.15349 16.5 6.22012 16.5 8.375C16.5 10.5299 15.644 12.5965 14.1202 14.1202C12.5965 15.644 10.5299 16.5 8.375 16.5C6.22012 16.5 4.15349 15.644 2.62976 14.1202C1.10602 12.5965 0.25 10.5299 0.25 8.375C0.25 6.22012 1.10602 4.15349 2.62976 2.62976ZM8.375 1.5C6.55164 1.5 4.80295 2.22433 3.51364 3.51364C2.22433 4.80295 1.5 6.55164 1.5 8.375C1.5 10.1984 2.22433 11.947 3.51364 13.2364C4.80295 14.5257 6.55164 15.25 8.375 15.25C10.1984 15.25 11.947 14.5257 13.2364 13.2364C14.5257 11.947 15.25 10.1984 15.25 8.375C15.25 6.55164 14.5257 4.80295 13.2364 3.51364C11.947 2.22433 10.1984 1.5 8.375 1.5Z" fill="#202124"/>
</svg>

<svg width="17" height="17" fill="none" xmlns="http://www.w3.org/2000/svg"><path d="M5.25 5.277a1.25 1.25 0 1 0 0 2.5 1.25 1.25 0 0 0 0-2.5Zm6.25 0a1.25 1.25 0 1 0 0 2.5 1.25 1.25 0 0 0 0-2.5Zm-3.125 7.5c1.39 0 2.32-.501 2.903-1.037.287-.264.483-.528.609-.731a2.858 2.858 0 0 0 .178-.334l.011-.026.004-.01.002-.004v-.001s0-.002-.582-.228l-.582-.226v-.002a1.594 1.594 0 0 1-.093.171 2.275 2.275 0 0 1-.392.47c-.367.337-1 .708-2.058.708-1.102 0-1.731-.374-2.082-.704-.182-.17-.3-.338-.37-.46a1.444 1.444 0 0 1-.083-.165v.004c.001 0 .001.002-.59.204-.591.203-.591.203-.59.204v.002l.001.004.004.01.01.027.035.083c.03.066.073.155.133.258.12.207.31.475.595.741.58.544 1.513 1.043 2.937 1.043Z" fill="#202124"/><path fill-rule="evenodd" clip-rule="evenodd" d="M2.63 2.63a8.125 8.125 0 1 1 11.49 11.49A8.125 8.125 0 0 1 2.63 2.63ZM8.375 1.5a6.875 6.875 0 1 0 0 13.75 6.875 6.875 0 0 0 0-13.75Z" fill="#202124"/></svg>
